X:10
T:Nelson’s Hornpipe. RDO.10
M:4/4
L:1/8
Q:1/2=90
S:Robert D. Owen MS,Indiana,1826.
R:.Hornpipe
O:Indiana,USA
A:New Harmony
N:One of several different Nelson Hornpipes……
Z:vmp.Chris Partington
K:Eb
B,2|E2E>EE2E2|GEGB eBGE|B2B>BB2B2|d>Bd>f|a>fd>f|!
e2e>ee2e2|gegb eBGB|Egfe dcB^A|B2B2B2:|!
|:B2|B2B>BB2B2|cded cBAG|ABcB AGFE|defe dcBA|!
G>ee2ceBe|G>e”tr”e2ceBe|Ac’ba gfed|e2e2e2:|

